X:1     
T:Fare ye well, Lovely Nancy
B:Roy Palmer (ed),(1986),Oxford Book of Sea Songs,Oxford, OUP
S:George Lovett, 1909
Z:R Vaughan Williams
F:http://www.folkinfo.org/songs
M:3/4    
L:1/8    
K:Am
A3/2B/ |c2 B2 A2 |G2 A2 B2 |E2 D2 B,2 |C2 HA,2
w:Fare ye well, love-ly Nan-cy, for I must now  leave you
 A3/2B/ |c2 B2 A2 |G2 E2 D2 |E2 A2 G2 | A4
w: I am bound~to th' East In-dies my course for to steer.
 (A3/2B/) |Hc2 E2 ^F2 |G2 A2 B2 |E2 D2 B,2 | C2 D2
w: I_ know ve-ry well my long abs-ence will grieve you, 
C3/2D/ |E2 c2 (BA) |G2 E2 (D3/2F/) |E2 A,2 A,2 | A,4  |]
w:But true love, I'll be_ back in the_ spring of the year. 